assets/Crown/Flat/crown_flat.svg

<svg width="32" height="32" viewBox="0 0 32 32" fill="none" xmlns="http://www.w3.org/2000/svg">
<path fill-rule="evenodd" clip-rule="evenodd" d="M6.93979 23.5C6.93979 24.3726 6.23239 25.08 5.35979 25.08C4.48718 25.08 3.77979 24.3726 3.77979 23.5C3.77979 22.6274 4.48718 21.92 5.35979 21.92C6.23239 21.92 6.93979 22.6274 6.93979 23.5ZM28.1998 23.5C28.1998 24.3726 27.4924 25.08 26.6198 25.08C25.7472 25.08 25.0398 24.3726 25.0398 23.5C25.0398 22.6274 25.7472 21.92 26.6198 21.92C27.4924 21.92 28.1998 22.6274 28.1998 23.5Z" fill="#00A6ED"/>
<path fill-rule="evenodd" clip-rule="evenodd" d="M10.2498 13.27L13.4298 17.54L6.83984 18.3L8.95984 13.41C8.44984 13.21 8.08984 12.71 8.08984 12.13C8.08984 11.37 8.70984 10.75 9.46984 10.75C10.2298 10.75 10.8498 11.37 10.8498 12.13C10.8498 12.61 10.6098 13.02 10.2498 13.27ZM23.01 13.41L25.13 18.3L18.54 17.54L21.72 13.27C21.36 13.02 21.12 12.6 21.12 12.13C21.12 11.37 21.74 10.75 22.5 10.75C23.26 10.75 23.88 11.37 23.88 12.13C23.88 12.71 23.52 13.21 23.01 13.41Z" fill="#E19747"/>
<path d="M29.98 13.09C29.98 12.33 29.36 11.71 28.6 11.71C27.84 11.71 27.22 12.33 27.22 13.09C27.22 13.37 27.31 13.64 27.45 13.85C27.23 13.85 27.01 13.9 26.8 14.04L22.87 16.58C22.35 16.91 21.67 16.79 21.3 16.29L16.93 10.36C16.9 10.31 16.86 10.27 16.82 10.23C17.35 9.94001 17.71 9.37 17.71 8.72C17.71 7.77 16.94 7 15.99 7C15.04 7 14.27 7.77 14.27 8.72C14.27 9.37 14.63 9.94001 15.16 10.23C15.12 10.27 15.08 10.31 15.05 10.36L10.68 16.29C10.32 16.79 9.63 16.91 9.11 16.58L5.18 14.04C4.97 13.9 4.75 13.85 4.53 13.85C4.68 13.63 4.76 13.37 4.76 13.09C4.76 12.33 4.14 11.71 3.38 11.71C2.62 11.71 2 12.33 2 13.09C2 13.85 2.62 14.47 3.38 14.47C3.43 14.47 3.48 14.47 3.52 14.46C3.39 14.69 3.34 14.96 3.4 15.25L6 28.22C6.19 29.15 7.01 29.82 7.96 29.82H10.03H15.99H21.95H24.02C24.97 29.82 25.79 29.15 25.98 28.22L28.58 15.25C28.64 14.96 28.58 14.68 28.46 14.46C28.51 14.46 28.56 14.47 28.6 14.47C29.36 14.47 29.98 13.85 29.98 13.09Z" fill="#FFB02E"/>
<path d="M15.99 26C17.3707 26 18.49 24.8807 18.49 23.5C18.49 22.1193 17.3707 21 15.99 21C14.6093 21 13.49 22.1193 13.49 23.5C13.49 24.8807 14.6093 26 15.99 26Z" fill="#00A6ED"/>
<path fill-rule="evenodd" clip-rule="evenodd" d="M11 23.5C11 24.3284 10.3284 25 9.5 25C8.67157 25 8 24.3284 8 23.5C8 22.6716 8.67157 22 9.5 22C10.3284 22 11 22.6716 11 23.5ZM24 23.5C24 24.3284 23.3284 25 22.5 25C21.6716 25 21 24.3284 21 23.5C21 22.6716 21.6716 22 22.5 22C23.3284 22 24 22.6716 24 23.5Z" fill="#F8312F"/>
</svg>

<svg xmlns="http://www.w3.org/2000/svg" width="32" height="32" fill="none"><path fill="#00A6ED" fill-rule="evenodd" d="M6.94 23.5a1.58 1.58 0 1 1-3.16 0 1.58 1.58 0 0 1 3.16 0Zm21.26 0a1.58 1.58 0 1 1-3.16 0 1.58 1.58 0 0 1 3.16 0Z" clip-rule="evenodd"/><path fill="#E19747" fill-rule="evenodd" d="m10.25 13.27 3.18 4.27-6.59.76 2.12-4.89c-.51-.2-.87-.7-.87-1.28 0-.76.62-1.38 1.38-1.38a1.383 1.383 0 0 1 .78 2.52Zm12.76.14 2.12 4.89-6.59-.76 3.18-4.27c-.36-.25-.6-.67-.6-1.14 0-.76.62-1.38 1.38-1.38.76 0 1.38.62 1.38 1.38 0 .58-.36 1.08-.87 1.28Z" clip-rule="evenodd"/><path fill="#FFB02E" d="M29.98 13.09c0-.76-.62-1.38-1.38-1.38-.76 0-1.38.62-1.38 1.38 0 .28.09.55.23.76-.22 0-.44.05-.65.19l-3.93 2.54c-.52.33-1.2.21-1.57-.29l-4.37-5.93a.689.689 0 0 0-.11-.13 1.721 1.721 0 1 0-1.66 0c-.04.04-.08.08-.11.13l-4.37 5.93c-.36.5-1.05.62-1.57.29l-3.93-2.54c-.21-.14-.43-.19-.65-.19.15-.22.23-.48.23-.76 0-.76-.62-1.38-1.38-1.38-.76 0-1.38.62-1.38 1.38 0 .76.62 1.38 1.38 1.38.05 0 .1 0 .14-.01-.13.23-.18.5-.12.79L6 28.22c.19.93 1.01 1.6 1.96 1.6h16.06c.95 0 1.77-.67 1.96-1.6l2.6-12.97c.06-.29 0-.57-.12-.79.05 0 .1.01.14.01.76 0 1.38-.62 1.38-1.38Z"/><path fill="#00A6ED" d="M15.99 26a2.5 2.5 0 1 0 0-5 2.5 2.5 0 0 0 0 5Z"/><path fill="#F8312F" fill-rule="evenodd" d="M11 23.5a1.5 1.5 0 1 1-3 0 1.5 1.5 0 0 1 3 0Zm13 0a1.5 1.5 0 1 1-3 0 1.5 1.5 0 0 1 3 0Z" clip-rule="evenodd"/></svg>
